icons/1_Primary/Dreamhost.svg

<svg xmlns="http://www.w3.org/2000/svg" viewBox="0 0 1024 1024">
   <style>
      .st1{fill:#fff}
   </style>
   <g id="Icon">
      <circle cx="512" cy="512" r="512" style="fill:#0073ec"/>
      <g id="mark_1_">
         <path class="st1" d="M755.4 640.6c-41.2 22.7-89.1 35.3-139.5 34.5-148.8-3.4-267.3-123.6-264.8-269.8.8-49.6 16-95.8 41.2-134.5-79.9 44.6-134.5 127.8-136.2 224.4-3.4 146.3 116 266.5 264.8 269.8 98.3 1.7 185.7-47.9 234.5-124.4"/>
         <path class="st1" d="M536.8 259c-40.3 0-78.2 10.1-111.8 28.6-21 34.5-32.8 74-34.5 114.3-2.5 126.9 100.9 232 229.5 234.5 38.7 0 82.4-9.2 116-27.7 20.2-34.5 32-74.9 32-117.7.8-127.8-103.4-232-231.2-232z"/>
      </g>
   </g>
</svg>

<svg width="1024" height="1024" viewBox="0 0 1024 1024" fill="none" xmlns="http://www.w3.org/2000/svg">
<g clip-path="url(#clip0_2_2058)">
<path d="M512 1024C794.77 1024 1024 794.77 1024 512C1024 229.23 794.77 0 512 0C229.23 0 0 229.23 0 512C0 794.77 229.23 1024 512 1024Z" fill="#728DBE"/>
<path d="M755.4 640.6C714.2 663.3 666.3 675.9 615.9 675.1C467.1 671.7 348.6 551.5 351.1 405.3C351.9 355.7 367.1 309.5 392.3 270.8C312.4 315.4 257.8 398.6 256.1 495.2C252.7 641.5 372.1 761.7 520.9 765C619.2 766.7 706.6 717.1 755.4 640.6Z" fill="white"/>
<path d="M536.8 259C496.5 259 458.6 269.1 425 287.6C404 322.1 392.2 361.6 390.5 401.9C388 528.8 491.4 633.9 620 636.4C658.7 636.4 702.4 627.2 736 608.7C756.2 574.2 768 533.8 768 491C768.8 363.2 664.6 259 536.8 259Z" fill="white"/>
</g>
<defs>
<clipPath id="clip0_2_2058">
<rect width="1024" height="1024" fill="white"/>
</clipPath>
</defs>
</svg>
